svgs/mekorama.svg

<svg xmlns="http://www.w3.org/2000/svg" viewBox="0 0 192 192"><path d="M65.433 65.177c1.978 0 3.582-1.162 3.582-2.597v-2.77c0-1.435-1.604-2.598-3.582-2.598-1.978 0-3.582 1.163-3.582 2.598v2.77c0 1.435 1.603 2.597 3.582 2.597Zm61.134 0c1.978 0 3.582-1.162 3.582-2.597v-2.77c0-1.435-1.604-2.598-3.582-2.598-1.978 0-3.582 1.163-3.582 2.598v2.77c0 1.435 1.603 2.597 3.582 2.597Z"/><path d="M168.358 132.445v-23.366c4.437-1.087 7.642-4.131 7.642-7.711 0-4.488-5.035-8.139-11.224-8.139h-16.291c5.17-3.51 8.411-8.497 8.411-14.026V51.498c0-10.599-11.892-19.221-26.508-19.221h-11.701v-6.966c2-.882 3.343-2.472 3.343-4.289 0-2.769-3.107-5.022-6.926-5.022-3.818 0-6.925 2.253-6.925 5.022 0 1.817 1.343 3.407 3.343 4.289v6.966H80.478v-6.966c2-.882 3.343-2.472 3.343-4.289 0-2.769-3.107-5.022-6.925-5.022-3.819 0-6.926 2.253-6.926 5.022 0 1.817 1.343 3.407 3.343 4.289v6.966H61.612c-14.616 0-26.508 8.622-26.508 19.221v27.705c0 5.529 3.241 10.516 8.411 14.026H27.224C21.035 93.229 16 96.88 16 101.368c0 3.58 3.205 6.624 7.642 7.711v23.366c-4.437 1.086-7.642 4.131-7.642 7.711v5.541c0 1.434 1.604 2.597 3.582 2.597 1.978 0 3.582-1.163 3.582-2.597v-5.541c0-1.623 1.821-2.944 4.06-2.944 2.238 0 4.06 1.321 4.06 2.944v5.541c0 1.434 1.603 2.597 3.582 2.597 1.978 0 3.582-1.163 3.582-2.597v-5.541c0-3.58-3.205-6.625-7.642-7.711v-22.939h15.761v25.109c0 4.487 5.035 8.138 11.224 8.138h4.494c.595 1.758 1.777 3.349 3.388 4.658l-.002.018v12.294h-4.059c-10.402 0-18.866 6.137-18.866 13.68 0 1.434 1.604 2.597 3.582 2.597h42.03c1.978 0 3.582-1.163 3.582-2.597V162.32c0-1.434-1.604-2.597-3.582-2.597h-.239v-12.294l-.001-.018c1.611-1.309 2.794-2.901 3.388-4.658h8.988c.594 1.758 1.777 3.349 3.388 4.658l-.002.018v12.294h-.238c-1.978 0-3.582 1.163-3.582 2.597v11.083c0 1.434 1.604 2.597 3.582 2.597h42.03c1.978 0 3.582-1.163 3.582-2.597 0-7.543-8.464-13.68-18.866-13.68h-4.06v-12.294l-.001-.018c1.611-1.309 2.793-2.901 3.388-4.658h4.494c6.189 0 11.224-3.651 11.224-8.138v-25.109h15.761v22.939c-4.437 1.086-7.642 4.131-7.642 7.711v5.541c0 1.434 1.604 2.597 3.582 2.597 1.979 0 3.582-1.163 3.582-2.597v-5.541c0-1.623 1.822-2.944 4.06-2.944 2.239 0 4.06 1.321 4.06 2.944v5.541c0 1.434 1.604 2.597 3.582 2.597 1.978 0 3.582-1.163 3.582-2.597v-5.541c0-3.58-3.205-6.625-7.642-7.711Zm-3.582-28.133c-2.238 0-4.06-1.321-4.06-2.944s1.822-2.944 4.06-2.944c2.239 0 4.06 1.321 4.06 2.944s-1.821 2.944-4.06 2.944ZM42.269 51.498c0-7.734 8.677-14.026 19.343-14.026h68.776c10.666 0 19.343 6.292 19.343 14.026v16.623c0 2.854-7.723 5.733-14.337 7.331-10.47 2.531-24.46 3.925-39.394 3.925-14.934 0-28.925-1.394-39.394-3.925-6.614-1.598-14.337-4.477-14.337-7.331Zm0 27.705v-2.949c2.851 1.434 6.757 2.842 12.071 4.127 11.181 2.702 25.976 4.19 41.66 4.19 15.684 0 30.479-1.488 41.66-4.19 5.315-1.285 9.22-2.693 12.071-4.128v2.95c0 7.734-8.677 14.026-19.343 14.026H61.612c-10.666 0-19.343-6.292-19.343-14.026ZM27.224 98.424c2.238 0 4.06 1.321 4.06 2.944s-1.822 2.944-4.06 2.944c-2.239 0-4.06-1.321-4.06-2.944s1.821-2.944 4.06-2.944Zm10.461 5.888a6.183 6.183 0 0 0 .763-2.944c0-1.038-.272-2.03-.763-2.944h8.882v5.888Zm47.091 66.493H50.471c1.517-3.412 5.938-5.887 11.141-5.887h23.164Zm-11.94-11.082v-9.065c1.292.263 2.653.407 4.06.407a20.36 20.36 0 0 0 4.059-.407v9.065Zm4.06-13.853c-3.055 0-5.704-1.269-7.011-3.117h14.021c-1.307 1.848-3.956 3.117-7.01 3.117Zm64.633 24.935h-34.305v-5.887h23.164c5.203 0 9.624 2.475 11.141 5.887Zm-30.484-11.082v-9.065a20.36 20.36 0 0 0 4.059.407c1.407 0 2.768-.144 4.06-.407v9.065Zm4.059-13.853c-3.054 0-5.703-1.269-7.01-3.117h14.021c-1.307 1.848-3.956 3.117-7.011 3.117Zm23.165-11.255c0 1.623-1.821 2.943-4.06 2.943H57.791c-2.239 0-4.06-1.32-4.06-2.943V97.557c2.491.564 5.138.867 7.881.867h68.776c2.743 0 5.39-.303 7.881-.867Zm7.164-36.191h8.882a6.183 6.183 0 0 0-.763 2.944c0 1.038.272 2.03.763 2.944h-8.882Z"/><path d="M96 107.082c-8.296 0-15.045 4.894-15.045 10.909 0 6.016 6.749 10.909 15.045 10.909s15.045-4.893 15.045-10.909c0-6.015-6.749-10.909-15.045-10.909Zm0 16.624c-4.345 0-7.881-2.564-7.881-5.715 0-3.15 3.535-5.714 7.881-5.714s7.881 2.564 7.881 5.714c0 3.151-3.536 5.715-7.881 5.715Zm-26.746-13.853c-1.979 0-3.582 1.163-3.582 2.597v11.082c0 1.435 1.603 2.598 3.582 2.598 1.978 0 3.582-1.163 3.582-2.598V112.45c0-1.434-1.604-2.597-3.582-2.597Zm53.492 0c-1.978 0-3.582 1.163-3.582 2.597v11.082c0 1.435 1.604 2.598 3.582 2.598 1.979 0 3.582-1.163 3.582-2.598V112.45c0-1.434-1.603-2.597-3.582-2.597Z"/></svg>

<svg
    xmlns="http://www.w3.org/2000/svg"
    viewBox="0 0 192 192"
    id="vector">
    <g id="group">
        <path
            id="path"
            d="M 65.433 65.177 C 67.411 65.177 69.015 64.015 69.015 62.58 L 69.015 59.81 C 69.015 58.375 67.411 57.212 65.433 57.212 C 63.455 57.212 61.851 58.375 61.851 59.81 L 61.851 62.58 C 61.851 64.015 63.454 65.177 65.433 65.177 Z M 126.567 65.177 C 128.545 65.177 130.149 64.015 130.149 62.58 L 130.149 59.81 C 130.149 58.375 128.545 57.212 126.567 57.212 C 124.589 57.212 122.985 58.375 122.985 59.81 L 122.985 62.58 C 122.985 64.015 124.588 65.177 126.567 65.177 Z"
            fill="#000000"
            stroke-width="12"/>
        <path
            id="path_1"
            d="M 168.358 132.445 L 168.358 109.079 C 172.795 107.992 176 104.948 176 101.368 C 176 96.88 170.965 93.229 164.776 93.229 L 148.485 93.229 C 153.655 89.719 156.896 84.732 156.896 79.203 L 156.896 51.498 C 156.896 40.899 145.004 32.277 130.388 32.277 L 118.687 32.277 L 118.687 25.311 C 120.687 24.429 122.03 22.839 122.03 21.022 C 122.03 18.253 118.923 16 115.104 16 C 111.286 16 108.179 18.253 108.179 21.022 C 108.179 22.839 109.522 24.429 111.522 25.311 L 111.522 32.277 L 80.478 32.277 L 80.478 25.311 C 82.478 24.429 83.821 22.839 83.821 21.022 C 83.821 18.253 80.714 16 76.896 16 C 73.077 16 69.97 18.253 69.97 21.022 C 69.97 22.839 71.313 24.429 73.313 25.311 L 73.313 32.277 L 61.612 32.277 C 46.996 32.277 35.104 40.899 35.104 51.498 L 35.104 79.203 C 35.104 84.732 38.345 89.719 43.515 93.229 L 27.224 93.229 C 21.035 93.229 16 96.88 16 101.368 C 16 104.948 19.205 107.992 23.642 109.079 L 23.642 132.445 C 19.205 133.531 16 136.576 16 140.156 L 16 145.697 C 16 147.131 17.604 148.294 19.582 148.294 C 21.56 148.294 23.164 147.131 23.164 145.697 L 23.164 140.156 C 23.164 138.533 24.985 137.212 27.224 137.212 C 29.462 137.212 31.284 138.533 31.284 140.156 L 31.284 145.697 C 31.284 147.131 32.887 148.294 34.866 148.294 C 36.844 148.294 38.448 147.131 38.448 145.697 L 38.448 140.156 C 38.448 136.576 35.243 133.531 30.806 132.445 L 30.806 109.506 L 46.567 109.506 L 46.567 134.615 C 46.567 139.102 51.602 142.753 57.791 142.753 L 62.285 142.753 C 62.88 144.511 64.062 146.102 65.673 147.411 C 65.673 147.417 65.671 147.423 65.671 147.429 L 65.671 159.723 L 61.612 159.723 C 51.21 159.723 42.746 165.86 42.746 173.403 C 42.746 174.837 44.35 176 46.328 176 L 88.358 176 C 90.336 176 91.94 174.837 91.94 173.403 L 91.94 162.32 C 91.94 160.886 90.336 159.723 88.358 159.723 L 88.119 159.723 L 88.119 147.429 C 88.119 147.423 88.118 147.417 88.118 147.411 C 89.729 146.102 90.912 144.51 91.506 142.753 L 100.494 142.753 C 101.088 144.511 102.271 146.102 103.882 147.411 C 103.882 147.417 103.88 147.423 103.88 147.429 L 103.88 159.723 L 103.642 159.723 C 101.664 159.723 100.06 160.886 100.06 162.32 L 100.06 173.403 C 100.06 174.837 101.664 176 103.642 176 L 145.672 176 C 147.65 176 149.254 174.837 149.254 173.403 C 149.254 165.86 140.79 159.723 130.388 159.723 L 126.328 159.723 L 126.328 147.429 C 126.328 147.423 126.327 147.417 126.327 147.411 C 127.938 146.102 129.12 144.51 129.715 142.753 L 134.209 142.753 C 140.398 142.753 145.433 139.102 145.433 134.615 L 145.433 109.506 L 161.194 109.506 L 161.194 132.445 C 156.757 133.531 153.552 136.576 153.552 140.156 L 153.552 145.697 C 153.552 147.131 155.156 148.294 157.134 148.294 C 159.113 148.294 160.716 147.131 160.716 145.697 L 160.716 140.156 C 160.716 138.533 162.538 137.212 164.776 137.212 C 167.015 137.212 168.836 138.533 168.836 140.156 L 168.836 145.697 C 168.836 147.131 170.44 148.294 172.418 148.294 C 174.396 148.294 176 147.131 176 145.697 L 176 140.156 C 176 136.576 172.795 133.531 168.358 132.445 Z M 164.776 104.312 C 162.538 104.312 160.716 102.991 160.716 101.368 C 160.716 99.745 162.538 98.424 164.776 98.424 C 167.015 98.424 168.836 99.745 168.836 101.368 C 168.836 102.991 167.015 104.312 164.776 104.312 Z M 42.269 51.498 C 42.269 43.764 50.946 37.472 61.612 37.472 L 130.388 37.472 C 141.054 37.472 149.731 43.764 149.731 51.498 L 149.731 68.121 C 149.731 70.975 142.008 73.854 135.394 75.452 C 124.924 77.983 110.934 79.377 96 79.377 C 81.066 79.377 67.075 77.983 56.606 75.452 C 49.992 73.854 42.269 70.975 42.269 68.121 Z M 42.269 79.203 L 42.269 76.254 C 45.12 77.688 49.026 79.096 54.34 80.381 C 65.521 83.083 80.316 84.571 96 84.571 C 111.684 84.571 126.479 83.083 137.66 80.381 C 142.975 79.096 146.88 77.688 149.731 76.253 L 149.731 79.203 C 149.731 86.937 141.054 93.229 130.388 93.229 L 61.612 93.229 C 50.946 93.229 42.269 86.937 42.269 79.203 Z M 27.224 98.424 C 29.462 98.424 31.284 99.745 31.284 101.368 C 31.284 102.991 29.462 104.312 27.224 104.312 C 24.985 104.312 23.164 102.991 23.164 101.368 C 23.164 99.745 24.985 98.424 27.224 98.424 Z M 37.685 104.312 C 38.176 103.398 38.448 102.406 38.448 101.368 C 38.448 100.33 38.176 99.338 37.685 98.424 L 46.567 98.424 L 46.567 104.312 Z M 84.776 170.805 L 50.471 170.805 C 51.988 167.393 56.409 164.918 61.612 164.918 L 84.776 164.918 Z M 72.836 159.723 L 72.836 150.658 C 74.128 150.921 75.489 151.065 76.896 151.065 C 78.302 151.065 79.663 150.921 80.955 150.658 L 80.955 159.723 Z M 76.896 145.87 C 73.841 145.87 71.192 144.601 69.885 142.753 L 83.906 142.753 C 82.599 144.601 79.95 145.87 76.896 145.87 Z M 141.529 170.805 L 107.224 170.805 L 107.224 164.918 L 130.388 164.918 C 135.591 164.918 140.012 167.393 141.529 170.805 Z M 111.045 159.723 L 111.045 150.658 C 112.337 150.921 113.698 151.065 115.104 151.065 C 116.511 151.065 117.872 150.921 119.164 150.658 L 119.164 159.723 Z M 115.104 145.87 C 112.05 145.87 109.401 144.601 108.094 142.753 L 122.115 142.753 C 120.808 144.601 118.159 145.87 115.104 145.87 Z M 138.269 134.615 C 138.269 136.238 136.448 137.558 134.209 137.558 L 57.791 137.558 C 55.552 137.558 53.731 136.238 53.731 134.615 L 53.731 97.557 C 56.222 98.121 58.869 98.424 61.612 98.424 L 130.388 98.424 C 133.131 98.424 135.778 98.121 138.269 97.557 Z M 145.433 98.424 L 154.315 98.424 C 153.824 99.338 153.552 100.33 153.552 101.368 C 153.552 102.406 153.824 103.398 154.315 104.312 L 145.433 104.312 Z"
            fill="#000000"
            stroke-width="12"/>
        <path
            id="path_2"
            d="M 96 107.082 C 87.704 107.082 80.955 111.976 80.955 117.991 C 80.955 124.007 87.704 128.9 96 128.9 C 104.296 128.9 111.045 124.007 111.045 117.991 C 111.045 111.976 104.296 107.082 96 107.082 Z M 96 123.706 C 91.655 123.706 88.119 121.142 88.119 117.991 C 88.119 114.841 91.654 112.277 96 112.277 C 100.346 112.277 103.881 114.841 103.881 117.991 C 103.881 121.142 100.345 123.706 96 123.706 Z M 69.254 109.853 C 67.275 109.853 65.672 111.016 65.672 112.45 L 65.672 123.532 C 65.672 124.967 67.275 126.13 69.254 126.13 C 71.232 126.13 72.836 124.967 72.836 123.532 L 72.836 112.45 C 72.836 111.016 71.232 109.853 69.254 109.853 Z M 122.746 109.853 C 120.768 109.853 119.164 111.016 119.164 112.45 L 119.164 123.532 C 119.164 124.967 120.768 126.13 122.746 126.13 C 124.725 126.13 126.328 124.967 126.328 123.532 L 126.328 112.45 C 126.328 111.016 124.725 109.853 122.746 109.853 Z"
            fill="#000000"
            stroke-width="12"/>
    </g>
</svg>
